admin/src/assets/earning_icon.svg

<svg width="66" height="65" viewBox="0 0 66 65" fill="none" xmlns="http://www.w3.org/2000/svg">
<rect width="66" height="65" rx="10" fill="#F6F8FF"/>
<path d="M41.5638 23.9054C43.6278 23.447 46.3162 21.3984 46.7253 20.3894C46.9653 19.7989 45.7687 18.876 45.4488 18.5038C44.7167 17.6549 45.012 17.2365 45.295 16.2245C45.618 15.0741 44.852 13.8037 43.7662 13.3054C42.6804 12.807 41.3823 12.9639 40.2903 13.4499C39.1983 13.9359 38.2663 14.7172 37.3527 15.4863C36.6852 15.0648 35.6209 13.2038 33.8983 14.4127C32.7079 15.2463 32.6002 17.0612 32.754 18.51C33.1139 21.8536 33.9383 23.5885 35.4917 24.0561C37.4542 24.6467 39.6259 24.336 41.5638 23.9054Z" fill="#577CFF"/>
<path d="M44.9176 14.2871C44.6561 18.7935 40.2605 21.7834 38.175 23.0999L39.5284 24.2627C39.5284 24.2627 40.3866 24.2811 41.5617 23.9059C43.5765 23.266 46.5202 21.4573 46.7232 20.39C47.0216 18.8366 45.4282 19.1749 45.0683 17.9476C44.8807 17.2985 45.9819 16.0712 44.9176 14.2871ZM37.3567 15.4898C37.3567 15.4898 36.5723 14.687 35.991 14.3209C35.7018 14.8654 35.4957 15.456 35.3942 16.0651C35.2127 17.1355 35.3942 18.6551 35.8218 19.7871C35.8895 19.9624 36.1417 19.9347 36.1694 19.7501C36.5385 17.317 37.3567 15.4898 37.3567 15.4898Z" fill="#1064E2"/>
<path d="M31.8726 23.5092C31.8726 23.5092 22.2784 24.5458 17.9504 32.8757C13.6225 41.2056 17.3014 46.2564 21.1957 48.0959C25.0899 49.9354 34.9024 50.5844 41.2852 49.071C47.668 47.5576 49.2644 44.42 48.9661 41.3902C48.5323 36.9668 44.4228 34.2476 44.4228 34.2476C44.4228 34.2476 44.5858 28.7846 40.347 25.2379C36.585 22.0881 31.8726 23.5092 31.8726 23.5092Z" fill="#577CFF"/>
<path d="M35.8084 37.5258C33.7505 34.9296 31.3204 34.582 30.5422 33.65C30.1177 33.1424 29.8686 32.6287 29.9639 31.992C30.0654 31.3153 30.8498 30.8477 31.4589 30.7339C32.1694 30.5986 33.8643 30.6693 35.2885 32.0258C35.6269 32.3457 35.5038 32.8441 35.4946 33.2901C35.47 34.2467 36.8388 35.1757 37.9462 34.3759C39.0567 33.5731 38.2046 31.7859 37.4879 30.9185C36.9465 30.2633 34.984 28.8206 32.5447 28.593C31.8587 28.5284 29.0995 28.1193 27.5062 31.1492C27.0478 32.0197 26.8786 34.1237 29.278 35.9016C29.7793 36.2738 32.3817 37.5965 33.1045 38.4547C34.3565 39.9405 33.4983 41.2478 32.5201 41.42C29.8532 41.8876 28.3428 40.4449 28.0629 39.6544C27.863 39.0915 28.0721 38.4824 27.8138 37.9533C27.5492 37.4089 27.0078 37.1936 26.4357 37.3751C24.5593 37.9718 25.1561 40.0235 25.9866 41.1524C26.8756 42.3613 27.9676 43.0903 29.1949 43.4902C33.7751 44.9821 35.9775 42.6258 36.362 40.9002C36.645 39.6359 36.6143 38.5409 35.8084 37.5258Z" fill="white"/>
<path d="M34.7007 26.8398C30.8034 35.1636 30.1328 45.6744 30.1328 45.6744" stroke="white" stroke-width="2.25" stroke-miterlimit="10"/>
<path d="M37.9365 21.6009C40.5327 22.4468 41.1079 24.7938 40.9203 25.4336C40.6957 26.1842 37.8196 23.2619 33.5439 23.4373C32.049 23.4988 32.4827 22.5821 33.1748 22.0531C34.0884 21.3548 35.6233 20.8503 37.9365 21.6009Z" fill="#6D4C41"/>
<path d="M37.9365 21.6009C40.5327 22.4468 41.1079 24.7938 40.9203 25.4336C40.6957 26.1842 37.8196 23.2619 33.5439 23.4373C32.049 23.4988 32.4827 22.5821 33.1748 22.0531C34.0884 21.3548 35.6233 20.8503 37.9365 21.6009Z" fill="#F7DECE"/>
<path d="M42.4961 29.8764C42.8222 29.6518 43.9173 30.0394 44.2249 32.1834C44.3756 33.2323 44.4217 34.2474 44.4217 34.2474C44.4217 34.2474 43.1298 33.0878 42.7022 32.2726C42.1639 31.2422 41.9548 30.2455 42.4961 29.8764Z" fill="#1064E2"/>
</svg>

<?xml version="1.0"?>
<svg width="66" height="65" xmlns="http://www.w3.org/2000/svg" xmlns:svg="http://www.w3.org/2000/svg">
 <g class="layer">
  <title>Layer 1</title>
  <rect fill="#F6F8FF" height="65" id="svg_1" rx="10" width="66"/>
  <path d="m41.56,23.91c2.07,-0.46 4.76,-2.51 5.17,-3.52c0.24,-0.59 -0.96,-1.51 -1.28,-1.89c-0.73,-0.85 -0.44,-1.26 -0.15,-2.28c0.32,-1.15 -0.45,-2.42 -1.53,-2.91c-1.09,-0.5 -2.39,-0.35 -3.48,0.14c-1.09,0.49 -2.02,1.27 -2.94,2.04c-0.66,-0.43 -1.73,-2.29 -3.45,-1.08c-1.19,0.84 -1.3,2.65 -1.15,4.1c0.36,3.34 1.19,5.08 2.74,5.55c1.96,0.59 4.14,0.28 6.07,-0.15z" fill="#126a9c" id="svg_2"/>
  <path d="m44.92,14.29c-0.26,4.5 -4.66,7.49 -6.75,8.81l1.36,1.16c0,0 0.86,0.02 2.03,-0.35c2.02,-0.64 4.96,-2.45 5.16,-3.52c0.3,-1.55 -1.29,-1.22 -1.65,-2.44c-0.19,-0.65 0.91,-1.88 -0.15,-3.66zm-7.56,1.2c0,0 -0.79,-0.8 -1.37,-1.17c-0.29,0.55 -0.49,1.14 -0.6,1.75c-0.18,1.07 0,2.59 0.43,3.72c0.07,0.17 0.32,0.14 0.35,-0.04c0.37,-2.43 1.19,-4.26 1.19,-4.26z" fill="#126a9c" id="svg_3"/>
  <path d="m31.87,23.51c0,0 -9.59,1.04 -13.92,9.37c-4.33,8.33 -0.65,13.38 3.25,15.22c3.89,1.84 13.7,2.48 20.09,0.97c6.38,-1.51 7.97,-4.65 7.68,-7.68c-0.44,-4.42 -4.55,-7.14 -4.55,-7.14c0,0 0.17,-5.47 -4.07,-9.01c-3.76,-3.15 -8.48,-1.73 -8.48,-1.73z" fill="#126a9c" id="svg_4"/>
  <path d="m35.81,37.53c-2.06,-2.6 -4.49,-2.95 -5.27,-3.88c-0.42,-0.51 -0.67,-1.02 -0.58,-1.66c0.11,-0.67 0.89,-1.14 1.5,-1.26c0.71,-0.13 2.4,-0.06 3.83,1.3c0.34,0.32 0.21,0.81 0.2,1.26c-0.02,0.96 1.35,1.89 2.46,1.09c1.11,-0.81 0.25,-2.59 -0.46,-3.46c-0.54,-0.66 -2.51,-2.1 -4.95,-2.33c-0.68,-0.06 -3.44,-0.47 -5.03,2.56c-0.46,0.87 -0.63,2.97 1.77,4.75c0.5,0.37 3.1,1.7 3.82,2.55c1.26,1.49 0.4,2.8 -0.58,2.97c-2.67,0.47 -4.18,-0.98 -4.46,-1.77c-0.2,-0.56 0.01,-1.17 -0.25,-1.7c-0.26,-0.54 -0.8,-0.76 -1.37,-0.57c-1.88,0.59 -1.28,2.64 -0.45,3.77c0.89,1.21 1.98,1.94 3.2,2.34c4.59,1.49 6.79,-0.86 7.17,-2.59c0.29,-1.26 0.25,-2.36 -0.55,-3.37z" fill="white" id="svg_5"/>
  <path d="m34.7,26.84c-3.9,8.32 -4.57,18.83 -4.57,18.83" id="svg_6" stroke="white" stroke-miterlimit="10" stroke-width="2.25"/>
  <path d="m37.94,21.6c2.59,0.85 3.17,3.19 2.98,3.83c-0.22,0.75 -3.1,-2.17 -7.38,-1.99c-1.49,0.06 -1.06,-0.86 -0.37,-1.39c0.92,-0.7 2.45,-1.2 4.77,-0.45z" fill="#6D4C41" id="svg_7"/>
  <path d="m37.94,21.6c2.59,0.85 3.17,3.19 2.98,3.83c-0.22,0.75 -3.1,-2.17 -7.38,-1.99c-1.49,0.06 -1.06,-0.86 -0.37,-1.39c0.92,-0.7 2.45,-1.2 4.77,-0.45z" fill="#F7DECE" id="svg_8"/>
  <path d="m42.5,29.88c0.32,-0.23 1.42,0.16 1.72,2.3c0.16,1.05 0.2,2.07 0.2,2.07c0,0 -1.29,-1.16 -1.72,-1.98c-0.54,-1.03 -0.75,-2.02 -0.2,-2.39z" fill="#1064E2" id="svg_9"/>
 </g>

</svg>
